X: 28800
T: My Mind Is Blank
R: jig
M: 6/8
K: Dmajor
|:"D"AFD AFD|"G"dcB "D"A3|"Em"GFG "A7"BAG|"D"AFD D3|
"D"AFA dcd|"Em"fed B3|EFG "A7"ABc|"D"dAF D3:|
|:"D"f2 f fed|"A"e2 e ecA|"Bm"dcd "E7"Bcd|"A"ecA A3|
"D"f2 f fdA|"A"efe ecA|"Em"GAB "A7"cde|"D"dAF D3:|

